X:93
T:Jimmy Doyle's
R:polka
H:Also in G, #63
D:Humdingers: Live in Oslo
Z:id:hn-polka-93
M:2/4
L:1/8
K:A
ce ef|ec cB/c/|ec Bc|ec A>B|ce ef|ec cB/c/|eA cB|1 BA A>B:|2 BA A2||
|:ef/g/ aa|gf f>f|fe ce|fe e2|ef/g/ aa|gf f>f|ec cB|1 BA A2:|2 BA A>B||
<end>
<start>
